src/assets/icons/letters,simple,serif-l.svg

<svg width="48" height="48" viewBox="0 0 48 48" fill="none" xmlns="http://www.w3.org/2000/svg">
<rect opacity="0.2" x="5" y="5" width="38" height="38" rx="4" fill="black"/>
<path d="M34.3968 36H13.7268V34.8C14.3868 34.78 14.9268 34.72 15.3468 34.62C15.7668 34.52 16.0868 34.35 16.3068 34.11C16.5268 33.87 16.6768 33.53 16.7568 33.09C16.8368 32.65 16.8768 32.08 16.8768 31.38V17.52C16.8768 16.82 16.8368 16.26 16.7568 15.84C16.6968 15.4 16.5668 15.06 16.3668 14.82C16.1668 14.56 15.8768 14.39 15.4968 14.31C15.1368 14.21 14.6568 14.14 14.0568 14.1V12.9H24.4068V14.1C23.7268 14.12 23.1768 14.18 22.7568 14.28C22.3568 14.38 22.0468 14.56 21.8268 14.82C21.6068 15.08 21.4568 15.44 21.3768 15.9C21.3168 16.36 21.2868 16.97 21.2868 17.73V30.3C21.2868 31.14 21.3668 31.83 21.5268 32.37C21.7068 32.89 22.0068 33.3 22.4268 33.6C22.8468 33.88 23.4068 34.08 24.1068 34.2C24.8068 34.3 25.6768 34.35 26.7168 34.35C27.8768 34.35 28.8468 34.28 29.6268 34.14C30.4068 34 31.0568 33.74 31.5768 33.36C32.1168 32.96 32.5468 32.43 32.8668 31.77C33.1868 31.11 33.4568 30.25 33.6768 29.19H34.8768L34.3968 36Z" fill="black"/>
</svg>

<svg xmlns="http://www.w3.org/2000/svg" width="48" height="48" fill="none" viewBox="0 0 48 48">
  <rect width="38" height="38" x="5" y="5" fill="#000" opacity=".2" rx="4"/>
  <path fill="#000" d="M34.397 36h-20.67v-1.2c.66-.02 1.2-.08 1.62-.18.42-.1.74-.27.96-.51.22-.24.37-.58.45-1.02.08-.44.12-1.01.12-1.71V17.52c0-.7-.04-1.26-.12-1.68-.06-.44-.19-.78-.39-1.02-.2-.26-.49-.43-.87-.51-.36-.1-.84-.17-1.44-.21v-1.2h10.35v1.2c-.68.02-1.23.08-1.65.18-.4.1-.71.28-.93.54-.22.26-.37.62-.45 1.08-.06.46-.09 1.07-.09 1.83V30.3c0 .84.08 1.53.24 2.07.18.52.48.93.9 1.23.42.28.98.48 1.68.6.7.1 1.57.15 2.61.15 1.16 0 2.13-.07 2.91-.21.78-.14 1.43-.4 1.95-.78.54-.4.97-.93 1.29-1.59.32-.66.59-1.52.81-2.58h1.2l-.48 6.81z"/>
</svg>
